X: 1
T: JUDY MALEY'S -- REEL
B: Ryan's Mammoth Collection of Fiddle Tunes
R: reel
M: C|
L: 1/8
Z: Contributed 20000501024705 by Ivan Bradley bradleyi:peoplepc.com
K: D
vAF |\
{G}F2 ED e3d | {de}f2 e>d dcBA | {c}B3A F>EFA | B>c Tc2 {Bc}d2 A>G |
GFED d3e | {g}f2 ed dcBA | B>cde fedc | B3c d2 "^H"|]
e>d |\
dcB>AA2 f2 | {ga}e<cTB>c A2 E>G | A3 B A>BAF | A3 B/c/ {e}d3c | B>Acd {c}B2AF |
AF(AB/c/) d3e | {de}f>edB (AB/c/) dG | F2 E>D D2 |]
